X:1
T:Title
%%score ( 1 2 ) { 3 | 4 }
L:1/8
Q:1/4=83
M:2/4
K:Ab
V:1 treble nm="Grand Piano, Soprano"
V:2 treble 
V:3 bass nm="Choir Pad, El Niño, 886 D"
V:4 bass 
V:1
 E[CA] [CA][CA] | .G2 z2 | E[EB] [EB][EB] | .A2 z2 | [=Ec] [Fc]2 [CA]- | [CA] [=DF]2 [DB]- | %6
w: By~Solomon~W.~Straub,~1893 * * *||||||
 [DB] [EB]3 | E[Ed] [Ed][Ed] | c/B/[Ec] [Ec][Ec] | [DB]/[CA]/[EB] [EB][EB] | A/G/[EA] [EA][EA] | %11
w: |||||
 [_G=A] [FB]2 [Fd]- | [Fd] [Ec]2 [DB]- | [DB] [CA]3- | [CA]4 |] %15
w: ||||
V:2
 x4 | E/-[EA]/[EB] [EB][EB] | x4 | E/-[EB]/[Ec] [Ec][Ec] | x4 | x4 | x4 | x4 | .E2 z2 | x4 | %10
 .E2 z2 | x4 | x4 | x4 | x4 |] %15
V:3
 G,A, A,A, | A,G, G,G, | E,G, G,G, | G,A, A,A, | B, A,2 A,- | A, B,2 A,- | A, G,3 | E,B, B,B, | %8
 B,A, A,A, | G,/F,/G, G,G, | A,/B,/[K:treble]C CC | E B,2[K:bass] B,- | B, A,2 G,- | G, A,3- | %14
 A,4 |] %15
V:4
 z A,, A,,A,, | C,E, E,E, | z E, E,D, | C,/B,,/A,, z2 | G, F,2 F,- | F, F,2 F,- | F, E,3 | %7
 z E, E,E, | .E,2 z2 | z E, E,E,/D,/ | C,/B,,/A,, A,,A,, | C, D,2 B,,- | B,, E,2 E,- | E, A,,3- | %14
 A,,4 |] %15

